Origami/48x48/apps/VVVVVV.svg

<svg width="48" height="48" version="1" xmlns="http://www.w3.org/2000/svg">
 <rect transform="matrix(0,-1,-1,0,0,0)" x="-45" y="-44" width="40" height="40" rx="2" ry="2" style="opacity:.2"/>
 <rect transform="matrix(0,-1,-1,0,0,0)" x="-44" y="-44" width="40" height="40" rx="2" ry="2" style="fill:#407494"/>
 <path d="m6 4c-1.108 0-2 0.892-2 2v1c0-1.108 0.892-2 2-2h36c1.108 0 2 0.892 2 2v-1c0-1.108-0.892-2-2-2h-36z" style="fill:#ffffff;opacity:.1"/>
 <path d="m34 11v2h2v20h-2v2h-5v2h5v2h-20v-2h5v-2h-5v-2h-2v-20h2v-2z" style="opacity:.2"/>
 <path d="m34 10v2h2v20h-2v2h-5v2h5v2h-20v-2h5v-2h-5v-2h-2v-20h2v-2z" style="fill:#91c2d0"/>
 <path d="m31 15v6h-6v-6zm-11 0v6h-6v-6zm8 12v2h-2v2h-10v-2h-2v-2z" style="opacity:.2"/>
 <path d="m31 14v6h-6v-6zm-11 0v6h-6v-6zm8 12v2h-2v2h-10v-2h-2v-2z" style="fill:#404040"/>
 <path d="m14 10v1h20v-1h-20zm-2 2v1h2v-1h-2zm22 0v1h2v-1h-2zm-20 24v1h5v-1h-5zm15 0v1h5v-1h-5z" style="fill:#ffffff;opacity:.1"/>
</svg>

<svg xmlns="http://www.w3.org/2000/svg" width="48" height="48" version="1">
 <rect style="opacity:0.2" width="40" height="40" x="-45" y="-44" rx="2" ry="2" transform="matrix(0,-1,-1,0,0,0)"/>
 <rect style="fill:#407494" width="40" height="40" x="-44" y="-44" rx="2" ry="2" transform="matrix(0,-1,-1,0,0,0)"/>
 <path style="fill:#ffffff;opacity:0.1" d="M 6 4 C 4.892 4 4 4.892 4 6 L 4 7 C 4 5.892 4.892 5 6 5 L 42 5 C 43.108 5 44 5.892 44 7 L 44 6 C 44 4.892 43.108 4 42 4 L 6 4 z"/>
 <path style="opacity:0.2" d="m 34,11 v 2 h 2 v 20 h -2 v 2 h -5 v 2 h 5 v 2 H 14 v -2 h 5 V 35 H 14 V 33 H 12 V 13 h 2 v -2 z"/>
 <path style="fill:#91c2d0" d="m 34,10 v 2 h 2 v 20 h -2 v 2 h -5 v 2 h 5 v 2 H 14 v -2 h 5 V 34 H 14 V 32 H 12 V 12 h 2 v -2 z"/>
 <path style="opacity:0.2" d="m 31,15 v 6 h -6 v -6 z m -11,0 v 6 h -6 v -6 z m 8,12 v 2 h -2 v 2 H 16 v -2 h -2 v -2 z"/>
 <path style="fill:#404040" d="m 31,14 v 6 h -6 v -6 z m -11,0 v 6 h -6 v -6 z m 8,12 v 2 h -2 v 2 H 16 v -2 h -2 v -2 z"/>
 <path style="fill:#ffffff;opacity:0.1" d="M 14 10 L 14 11 L 34 11 L 34 10 L 14 10 z M 12 12 L 12 13 L 14 13 L 14 12 L 12 12 z M 34 12 L 34 13 L 36 13 L 36 12 L 34 12 z M 14 36 L 14 37 L 19 37 L 19 36 L 14 36 z M 29 36 L 29 37 L 34 37 L 34 36 L 29 36 z"/>
</svg>
